X:1
T: Miss Barrett's Waltz
N:
C:
S:
A:
O:
R:
M:3/4
K:A
I:speed 150
%W: A1
% voice 1 (1 lines, 28 notes)
K:A
M:3/4
L:1/16
E4 |A2 B2 c4 c4 |c2 d2 e4 e4 |d2 e2 f4 d4 |B8 E4 |A4 G4 A4 |B4 A4 B4 |c4 e2 d2 c2 B2 |A8 E4 |
%W: A2
% voice 1 (1 lines, 27 notes)
A2 B2 c4 c4 |c2 d2 e4 e4 |d2 e2 f4 d4 |B8 E4 |A4 G4 A4 |B4 A4 B4 |c4 e2 d2 c2 B2 |A8 e4 |
%W: B1
% voice 1 (1 lines, 30 notes)
e2 d2 B4 B4 |B2 G2 E4 E4 |c2 A2 E4 E4 |A2 c2 e4 e4 |e2 d2 B4 B4 |B2 G2 E4 E4 |A2 c2 e4 e4 |A8 e4 |
%W: B2
% voice 1 (1 lines, 30 notes)
e2 d2 B4 B4 |B2 G2 E4 E4 |c2 A2 E4 E4 |A2 c2 e4 e4 |e2 d2 B4 B4 |B2 G2 E4 E4 |A2 c2 e4 e4 |A8 e4 |
%W: C1
% voice 1 (1 lines, 27 notes)
e4 ^d4 e4 |c4 =c4 ^c4 |A4 G4 A4 |G2 A2 B4 E4 |A4 A4 A4 |e8 c2 A2 |B4 B2 A2 B2 c2 |A8 c2 B2 |
%W: C2
% voice 1 (1 lines, 26 notes)
A4 c4 e4 |e2 f2 e2 d2 c4 |B4 A4 B4 |c4 A4 E4 |A4 c4 e4 |e2 f2 e2 d2 c4 |B4 A4 B4 |A8 ||
